src/assets/duotone/Frame.svg

<?xml version="1.0" encoding="UTF-8"?>
<svg width="24" height="24" viewBox="0 0 24 24" xmlns="http://www.w3.org/2000/svg">
 <path d="m16 20.97v-2.94c0-1.27 0.76-2.03 2.03-2.03h2.94c0.4 0 0.74 0.08 1.03 0.22v-0.04-8.37c0-3.64-2.17-5.81-5.81-5.81h-8.38c-3.64 0-5.81 2.17-5.81 5.81v8.37c0 3.65 2.17 5.82 5.81 5.82h8.37 0.04c-0.14-0.29-0.22-0.63-0.22-1.03z" opacity=".4"/>
 <path d="m7 14.25c-0.41 0-0.75-0.34-0.75-0.75v-3c0-0.41 0.34-0.75 0.75-0.75s0.75 0.34 0.75 0.75v3c0 0.41-0.34 0.75-0.75 0.75z"/>
 <path d="m12 14.25c-0.41 0-0.75-0.34-0.75-0.75v-3c0-0.41 0.34-0.75 0.75-0.75s0.75 0.34 0.75 0.75v3c0 0.41-0.34 0.75-0.75 0.75z"/>
 <path d="m17 14.25c-0.41 0-0.75-0.34-0.75-0.75v-3c0-0.41 0.34-0.75 0.75-0.75s0.75 0.34 0.75 0.75v3c0 0.41-0.34 0.75-0.75 0.75z"/>
 <path d="m20.97 16h-2.94c-1.27 0-2.03 0.76-2.03 2.03v2.94c0 1.27 0.76 2.03 2.03 2.03h2.94c1.27 0 2.03-0.76 2.03-2.03v-2.94c0-1.27-0.76-2.03-2.03-2.03zm0.5 4.56c0.25 0.25 0.25 0.66 0 0.91-0.13 0.12-0.29 0.18-0.46 0.18-0.16 0-0.32-0.06-0.45-0.18l-1.06-1.06-1.05 1.06c-0.13 0.12-0.29 0.18-0.46 0.18-0.16 0-0.32-0.06-0.45-0.18-0.25-0.25-0.25-0.66 0-0.91l1.06-1.06-1.06-1.05c-0.25-0.25-0.25-0.66 0-0.91s0.66-0.25 0.91 0l1.05 1.06 1.06-1.06c0.25-0.25 0.66-0.25 0.91 0s0.25 0.66 0 0.91l-1.06 1.05 1.06 1.06z"/>
</svg>

<svg width="24" height="24" viewBox="0 0 24 24"  xmlns="http://www.w3.org/2000/svg">
<path opacity="0.4" d="M16 20.97V18.03C16 16.76 16.76 16 18.03 16H20.97C21.37 16 21.71 16.08 22 16.22C22 16.21 22 16.2 22 16.18V7.81C22 4.17 19.83 2 16.19 2H7.81C4.17 2 2 4.17 2 7.81V16.18C2 19.83 4.17 22 7.81 22H16.18C16.19 22 16.2 22 16.22 22C16.08 21.71 16 21.37 16 20.97Z" />
<path d="M7 14.25C6.59 14.25 6.25 13.91 6.25 13.5V10.5C6.25 10.09 6.59 9.75 7 9.75C7.41 9.75 7.75 10.09 7.75 10.5V13.5C7.75 13.91 7.41 14.25 7 14.25Z" />
<path d="M12 14.25C11.59 14.25 11.25 13.91 11.25 13.5V10.5C11.25 10.09 11.59 9.75 12 9.75C12.41 9.75 12.75 10.09 12.75 10.5V13.5C12.75 13.91 12.41 14.25 12 14.25Z" />
<path d="M17 14.25C16.59 14.25 16.25 13.91 16.25 13.5V10.5C16.25 10.09 16.59 9.75 17 9.75C17.41 9.75 17.75 10.09 17.75 10.5V13.5C17.75 13.91 17.41 14.25 17 14.25Z" />
<path d="M20.97 16H18.03C16.76 16 16 16.76 16 18.03V20.97C16 22.24 16.76 23 18.03 23H20.97C22.24 23 23 22.24 23 20.97V18.03C23 16.76 22.24 16 20.97 16ZM21.47 20.56C21.72 20.81 21.72 21.22 21.47 21.47C21.34 21.59 21.18 21.65 21.01 21.65C20.85 21.65 20.69 21.59 20.56 21.47L19.5 20.41L18.45 21.47C18.32 21.59 18.16 21.65 17.99 21.65C17.83 21.65 17.67 21.59 17.54 21.47C17.29 21.22 17.29 20.81 17.54 20.56L18.6 19.5L17.54 18.45C17.29 18.2 17.29 17.79 17.54 17.54C17.79 17.29 18.2 17.29 18.45 17.54L19.5 18.6L20.56 17.54C20.81 17.29 21.22 17.29 21.47 17.54C21.72 17.79 21.72 18.2 21.47 18.45L20.41 19.5L21.47 20.56Z" />
</svg>
